src/assets/twitter.svg

<svg xmlns="http://www.w3.org/2000/svg" width="24" height="24" viewBox="0 0 24 24"><path d="M24 4.557c-.883.392-1.832.656-2.828.775 1.017-.609 1.798-1.574 2.165-2.724-.951.564-2.005.974-3.127 1.195-.897-.957-2.178-1.555-3.594-1.555-3.179 0-5.515 2.966-4.797 6.045-4.091-.205-7.719-2.165-10.148-5.144-1.29 2.213-.669 5.108 1.523 6.574-.806-.026-1.566-.247-2.229-.616-.054 2.281 1.581 4.415 3.949 4.89-.693.188-1.452.232-2.224.084.626 1.956 2.444 3.379 4.6 3.419-2.07 1.623-4.678 2.348-7.29 2.04 2.179 1.397 4.768 2.212 7.548 2.212 9.142 0 14.307-7.721 13.995-14.646.962-.695 1.797-1.562 2.457-2.549z"/></svg>

<svg xmlns="http://www.w3.org/2000/svg" width="24" height="19.504" viewBox="0 0 24 19.504">
  <path id="twitter" d="M24,4.557a9.831,9.831,0,0,1-2.828.775,4.932,4.932,0,0,0,2.165-2.724A9.864,9.864,0,0,1,20.21,3.8a4.927,4.927,0,0,0-8.391,4.49A13.978,13.978,0,0,1,1.671,3.149,4.93,4.93,0,0,0,3.194,9.723,4.9,4.9,0,0,1,.965,9.107,4.927,4.927,0,0,0,4.914,14a4.935,4.935,0,0,1-2.224.084A4.928,4.928,0,0,0,7.29,17.5,9.9,9.9,0,0,1,0,19.54a13.939,13.939,0,0,0,7.548,2.212A13.925,13.925,0,0,0,21.543,7.106,10.025,10.025,0,0,0,24,4.557Z" transform="translate(0 -2.248)" fill="#0f7"/>
</svg>
